dist/svg/headset-mic.svg

<svg width="16" height="16" viewBox="0 0 16 16" fill="rgb(34, 34, 34)" xmlns="http://www.w3.org/2000/svg"><title>headset-mic</title><path d="M14.9 13.7C14.5 12 12 11 10.5 11H5.49999C3.99999 11 1.49999 12 1.09999 13.7C0.799993 14.9 1.09999 16 3.19999 16H12.8C14.9 16 15.2 14.9 14.9 13.7ZM8.49999 6.99999C9.14899 7.01399 9.72299 7.32199 10.097 7.79599L10.1 7.79999C10.2 7.89999 10.3 7.99999 10.5 7.89999C11.4 7.69999 11.9 7.29999 12 6.49999V5.99999C11.991 3.77899 10.189 1.98199 7.96699 1.98199C7.62399 1.98199 7.29099 2.02499 6.97299 2.10599L7.00099 2.09999C5.53399 2.45799 4.40999 3.61599 4.10499 5.07499L4.10099 5.09999C4.03399 5.37099 3.99599 5.68199 3.99599 6.00199C3.99599 7.25499 4.58099 8.37199 5.49199 9.09299L5.49999 9.09899V8.99899C5.50299 7.89599 6.39699 7.00199 7.49999 6.99899L8.49999 6.99999ZM2.49999 6.49999C2.50899 6.50099 2.51799 6.50099 2.52799 6.50099C2.78899 6.50099 2.99999 6.28899 2.99999 6.02899C2.99999 6.01899 2.99999 6.00899 2.99899 5.99899C2.99899 5.98399 2.99899 5.96799 2.99899 5.95099C2.99899 3.21599 5.21599 0.999993 7.94999 0.999993C7.96699 0.999993 7.98399 0.999993 8.00099 0.999993H7.99799C8.01299 0.999993 8.02999 0.999993 8.04699 0.999993C10.782 0.999993 12.998 3.21699 12.998 5.95099C12.998 5.96799 12.998 5.98499 12.998 6.00199V5.99899C12.998 7.09899 12.498 8.99899 9.49799 8.99899C9.45999 8.46199 9.03499 8.03699 8.50099 7.99899H8.49799H7.49799C6.96099 8.03699 6.53599 8.46199 6.49799 8.99599V8.99899C6.49699 9.01099 6.49699 9.02599 6.49699 9.04099C6.49699 9.51799 6.83999 9.91399 7.29199 9.99799L7.29799 9.99899H9.49799C12.298 9.99899 13.998 8.49899 13.998 5.99899C13.998 2.68499 11.312 -0.00100708 7.99799 -0.00100708C4.68399 -0.00100708 1.99799 2.68499 1.99799 5.99899C1.99699 6.00799 1.99699 6.01699 1.99699 6.02699C1.99699 6.28799 2.20899 6.49899 2.46899 6.49899C2.47899 6.49899 2.48899 6.49899 2.49899 6.49799H2.49799L2.49999 6.49999Z" fill="rgb(34, 34, 34)" fill-opacity="1.00"/></svg>

<!-- Generated by Trend Micro Style Portal -->
<svg version="1.1" xmlns="http://www.w3.org/2000/svg" width="16" height="16" viewBox="0 0 16 16">
  <title>headset-mic</title>
  <path fill="rgb(34,34,34)" d="M14.9 13.7c-0.4-1.7-2.9-2.7-4.4-2.7h-5c-1.5 0-4 1-4.4 2.7-0.3 1.2 0 2.3 2.1 2.3h9.6c2.1 0 2.4-1.1 2.1-2.3zM8.5 7c0.649 0.014 1.223 0.322 1.597 0.796l0.003 0.004c0.1 0.1 0.2 0.2 0.4 0.1 0.9-0.2 1.4-0.6 1.5-1.4v-0.5c-0.009-2.221-1.811-4.018-4.033-4.018-0.343 0-0.676 0.043-0.994 0.124l0.028-0.006c-1.467 0.358-2.591 1.516-2.896 2.975l-0.004 0.025c-0.067 0.271-0.105 0.582-0.105 0.902 0 1.253 0.585 2.37 1.496 3.091l0.008 0.006v-0.1c0.003-1.103 0.897-1.997 2-2h0zM2.5 6.5c0.009 0.001 0.018 0.001 0.028 0.001 0.261 0 0.472-0.212 0.472-0.472 0-0.010-0-0.020-0.001-0.030l0 0.001c-0-0.015-0-0.032-0-0.049 0-2.735 2.217-4.951 4.951-4.951 0.017 0 0.034 0 0.051 0l-0.003-0c0.015-0 0.032-0 0.049-0 2.735 0 4.951 2.217 4.951 4.951 0 0.017-0 0.034-0 0.051l0-0.003c0 1.1-0.5 3-3.5 3-0.038-0.537-0.463-0.962-0.997-1l-0.003-0h-1c-0.537 0.038-0.962 0.463-1 0.997l-0 0.003c-0.001 0.012-0.001 0.027-0.001 0.042 0 0.477 0.343 0.873 0.795 0.957l0.006 0.001h2.2c2.8 0 4.5-1.5 4.5-4 0-3.314-2.686-6-6-6s-6 2.686-6 6v0c-0.001 0.009-0.001 0.018-0.001 0.028 0 0.261 0.212 0.472 0.472 0.472 0.010 0 0.020-0 0.030-0.001l-0.001 0z"></path>
</svg>
